svg/white/maid.svg

<svg height="32" width="32" xmlns="http://www.w3.org/2000/svg"><g fill="#fff" fill-rule="evenodd"><path d="m16 32c-8.837 0-16-7.163-16-16s7.163-16 16-16 16 7.163 16 16-7.163 16-16 16zm-6.709-12.667 10.955 6.308c2.263-1.282 3.394-1.692 3.394-5.436v-12.615c-2.263-1.282-3.189-2.052-6.429-.205l-10.954 6.307c0 2.564-.206 3.744 3.034 5.641zm8.234-5.108v2.854l-2.488-1.427z"/><g fill-rule="nonzero"><path d="m17.52 20.205-11.263-6.513 10.954-6.307c3.24-1.847 4.166-1.077 6.429.205l-11.263 6.513 5.143 2.974z" opacity=".402"/><path d="m20.246 12.667v12.973l-10.956-6.307c-3.24-1.897-3.034-3.077-3.034-5.64l11.263 6.512v-5.949l2.726-1.59z" fill-opacity=".8"/></g></g></svg>

<svg xmlns="http://www.w3.org/2000/svg" width="32" height="32"><g fill="#FFF" fill-rule="evenodd"><path d="M16 32C7.163 32 0 24.837 0 16S7.163 0 16 0s16 7.163 16 16-7.163 16-16 16zM9.291 19.333l10.955 6.308c2.263-1.282 3.394-1.692 3.394-5.436V7.59c-2.263-1.282-3.189-2.052-6.429-.205L6.257 13.692c0 2.564-.206 3.744 3.034 5.641zm8.234-5.108v2.854l-2.488-1.427 2.488-1.427z"/><path fill-rule="nonzero" d="M17.52 20.205L6.257 13.692l10.954-6.307c3.24-1.847 4.166-1.077 6.429.205l-11.263 6.513 5.143 2.974v3.128z" opacity=".402"/><path fill-opacity=".8" fill-rule="nonzero" d="M20.246 12.667V25.64L9.29 19.333c-3.24-1.897-3.034-3.077-3.034-5.64l11.263 6.512v-5.949l2.726-1.59z"/></g></svg>
